public/static/img/flag/zh.svg

<svg width="30" height="30" viewBox="0 0 30 30" fill="none" xmlns="http://www.w3.org/2000/svg">
<circle cx="15" cy="15" r="15" fill="#E22D2D"/>
<mask id="mask0_136_1758" style="mask-type:alpha" maskUnits="userSpaceOnUse" x="0" y="1" width="26" height="26">
<circle cx="13" cy="14" r="13" fill="#CE1126"/>
</mask>
<g mask="url(#mask0_136_1758)">
<path fill-rule="evenodd" clip-rule="evenodd" d="M17.7088 5.02505L17.3502 4L16.9903 5.02531L15.8549 5.03332L16.7111 5.70997L16.3883 6.82851L17.3502 6.17071L18.3121 6.82851L17.967 5.72469L18.8442 5.03306L17.7088 5.02505ZM22.0116 9.22082L21.653 8.19576L21.2931 9.22107L20.1577 9.22908L21.0139 9.90573L20.6912 11.0243L21.653 10.3665L22.6149 11.0243L22.2698 9.92045L23.147 9.22882L22.0116 9.22082ZM21.8632 15.3104L21.5046 14.2854L21.1447 15.3107L20.0093 15.3187L20.8655 15.9954L20.5427 17.1139L21.5046 16.4561L22.4665 17.1139L22.1214 16.0101L22.9986 15.3184L21.8632 15.3104ZM17.7088 19.4693L17.3502 18.4442L16.9903 19.4695L15.8549 19.4775L16.7111 20.1542L16.3883 21.2727L17.3502 20.6149L18.3121 21.2727L17.967 20.1689L18.8442 19.4773L17.7088 19.4693ZM8.74503 9.11307L7.65105 5.81818L6.55732 9.11255L3.09357 9.13888L5.70118 11.314L4.71695 14.9091L7.65105 12.7951L10.5851 14.9091L9.53236 11.3614L12.2088 9.13941L8.74503 9.11307Z" fill="#FCD116"/>
</g>
</svg>

<svg width="30" height="30" fill="none" xmlns="http://www.w3.org/2000/svg"><circle cx="15" cy="15" r="15" fill="#E22D2D"/><mask id="a" style="mask-type:alpha" maskUnits="userSpaceOnUse" x="0" y="1" width="26" height="26"><circle cx="13" cy="14" r="13" fill="#CE1126"/></mask><g mask="url(#a)"><path fill-rule="evenodd" clip-rule="evenodd" d="M17.709 5.025 17.35 4l-.36 1.025-1.135.008.856.677-.323 1.119.962-.658.962.658-.345-1.104.877-.692-1.135-.008Zm4.303 4.196-.359-1.025-.36 1.025-1.135.008.856.677-.323 1.118.962-.657.962.657-.345-1.104.877-.691-1.135-.008Zm-.149 6.09-.358-1.026-.36 1.026-1.136.008.857.676-.323 1.119.962-.658.962.658-.346-1.104.878-.692-1.136-.008Zm-4.154 4.158-.359-1.025-.36 1.026-1.135.008.856.676-.323 1.119.962-.658.962.658-.345-1.104.877-.692-1.135-.008ZM8.745 9.113 7.651 5.818 6.557 9.113l-3.463.026L5.7 11.314l-.984 3.595 2.934-2.114 2.934 2.114-1.053-3.548L12.21 9.14l-3.464-.026Z" fill="#FCD116"/></g></svg>
